X:171
T:Reel 171
M:4/4
K:Gmaj
L:1/8
dG (3GGG fdec|dGGB AGF2|dG (3GGG  (3def cB|AGFA G2G2|dG (3GGG  (3def cB|AGFG ABcA|dggf  (3def cB|AGFA G2G2|dggf  (3def cf|dffa gf (3def |dggf gfga|fdcA BGG2|dggf gagf|dcde fga2|gefd efdc|BdAB G2G2|
